X:1
T:O gladsome light, O grace
T:O gladsome light, O grace
T:Copyright © CPDL
T:Copyright © CPDL
T:Copyright © CPDL
Z:Copyright © CPDL
%%score [ ( 1 2 ) ( 3 4 ) ]
L:1/8
Q:1/4=100
M:2/4
K:F
V:1 treble nm="Treble" snm="Tr."
V:2 treble 
V:3 bass nm="Bass" snm="B."
V:4 bass 
V:1
"^Editor: John Henry Fowler""^( Revision: 08 - 18 - 2007 )""^Moderato" c4 | d2 c2 | B4 | A4 | G4 | %5
w: 1:~O|glad- some|light,|O|grace|
 B4 |"^Louis Bourgeous" A2"^( c. 1510 - 1561 )" F2 | E2 G2 | F4 | F4 | c2 c2 | d2 c2 | B4 | A4 | %14
w: Of|God the|Fa- ther's|||||||
 c4 | A2 B2 | A2 G2 | F4 | F4 | D2 E2 | F2 D2 | C4 | F4 | G2 A2 | B2 A2 | G4 | F4 | A4 | B2 A2- | %29
w: ||ho- ly,|blest,|Our|Sa- viour|Je- sus|Christ,|Joy-|ful in|thine ap-|pear-|ing.|2:~Now|ere day|
 A2 G2- | G2 ^F2 | G4 | G4 | F2 D2 | E2 E2 | F4 | A4 | F2 F2 | F2 F2 | F4 | F4 | G4 | F2 F2 | %43
w: fa- *|deth *|quite,|We|see the|eve- ning|light,|Our|wont- ed|hymn out-|pour-|ing|Fa-|ther of|
 F2 E2 | D4 | D4 | D2 C2 | C2 =B,2 | C4 | D4 | D2 F2 | F2 F2- | F2 E2 | F4 | F4 | c4 | d2 c2 | B4 | %58
w: might un-|known,|Thee,|His in-|car- nate|Son,|And|Ho- ly|Spi- rit|a- *|dor-|ing.|3:~To|thee of|right|
 A4 | G4 | B4 | A2 F2 | G2 G2 | F4 | F4 | c2 c2 | d2 c2 | B4 | A4 | c4 | A2 B2 | A2 G2 | F4 | F4 | %74
w: be~\-|\-~longs|All|praise of|ho- ly|songs,|O|Son of|God, Life-|giv-|\-~er,|Thee,|There- fore,|O Most|High,|The|
 D2 E2 | F2 D2 | C4 | F4 | G2 A2 | B2 A2 | G4 | F4 |[M:4/4] F8- | F8 | F8 |] %85
w: world doth|glo- ri-|fy,|And|shall ex-|alt for|ev-|er.|A-||men.|
V:2
 A4 | B2 G2- | G2 F2- | F2 E2 | G4 | G4 | F2 D2 | E2 E2 | F4 | F4 | F2 F2 | F2 F2 | F4 | F4 | G4 | %15
w: ||||||||face,|Th'e-|ter- nal|splen- dour|wear-|ing:|Ce-|
 F2 F2 | F2 E2 | D4 | D4 | D2 C2 | C2 =B,2 | C4 | D4 | D2 F2 | F2 F2 | F2- E2 | F4 | F4 | F2 F2 | %29
w: les- tial||||||||||||||
 D4 | D4 | D4 | D4 | D2 A,2 | C2 C2 | C4 | C4 | A,2 A,2 | B,2 A,2 | D4 | C4 | E4 | D2 D2 | C2 C2 | %44
w: |||||||||||||||
 A,4 | B,4 | F,2 A,2 | A,2 G,2 | G,4 | B,4 | B,2 C2 | D2 C2 | C4 | C4 | C4 | A4 | B2 A2- | A2 G2- | %58
w: ||||||||||||||
 G2 ^F2 | G4 | G4 | F2 D2 | E2 E2 | F4 | F4 | F2 F2 | F2 F2 | F4 | F4 | G4 | F2 F2 | F2 E2 | D4 | %73
w: |||||||||||||||
 D4 | D2 C2 | C2 =B,2 | C4 | D4 | D2 F2 | F2 F2- | F2 E2 | F4 |[M:4/4] (F3 E D4 | C8) | C8 |] %85
w: ||||||||||||
V:3
 F4 | F2 F2 | D4 | D4 | D4 | D4 | D2 A,2 | C2 C2 | C4 | A,4 | A,2 A,2 | B,2 A,2 | D4 | C4 | E4 | %15
 D2 D2 | C2 C2 | A,4 | B,4 | F,2 A,2 | A,2 G,2 | G,4 | B,4 | B,2 C2 | D2 C2 | C4 | C4 | C4 | %28
 D2 C2 | B,4 | A,4 | G,4 | B,4 | A,2 F,2 | G,2 G,2 | F,4 | F,4 | C2 C2 | D2 C2 | B,4 | A,4 | C4 | %42
 A,2 B,2 | A,2 G,2 | F,4 | F,4 | D,2 E,2 | F,2 D,2 | C,4 | F,4 | G,2 A,2 | B,2 A,2 | G,4 | F,4 | %54
 F,4 | F4 | F2 F2 | D4 | D4 | D4 | D4 | D2 A,2 | C2 C2 | C4 | A,4 | A,2 A,2 | B,2 A,2 | D2 z2 | %68
 C4 | E4 | D2 D2 | C2 C2 | A,4 | B,4 | F,2 A,2 | A,2 G,2 | G,4 | B,4 | B,2 C2 | D2 C2 | C4 | C4 | %82
[M:4/4] (D2 C2 B,4- | B,4 A,2 G,2) | A,8 |] %85
V:4
 F,4 | B,,2 F,2 | G,4 | D,4 | G,,4 | G,,4 | D,2 D,2 | C,2 C,2 | F,,4 | F,4 | F,2 F,2 | B,,2 F,2 | %12
 B,,4 | F,4 | C,4 | D,2 B,,2 | F,2 C,2 | D,4 | B,,4 | B,,2 A,,2 | F,,2 G,,2 | C,4 | B,,4 | %23
 G,,2 F,,2 | B,,2 F,,2 | C,4 | F,,4 | F,4 | B,,2 F,2 | G,4 | D,4 | G,,4 | G,,4 | D,2 D,2 | %34
 C,2 C,2 | F,,4 | F,4 | F,2 F,2 | B,,2 F,2 | B,,4 | F,4 | C,4 | D,2 B,,2 | F,2 C,2 | D,4 | B,,4 | %46
 B,,2 A,,2 | F,,2 G,,2 | C,4 | B,,4 | G,,2 F,,2 | B,,2 F,,2 | C,4 | F,,4 | F,,4 | F,4 | B,,2 F,2 | %57
 G,4 | D,4 | G,,4 | G,,4 | D,2 D,2 | C,2 C,2 | F,,4 | F,4 | F,2 F,2 | B,,2 F,2 | B,,4 | F,4 | C,4 | %70
 D,2 B,,2 | F,2 C,2 | D,4 | B,,4 | B,,2 A,,2 | F,,2 G,,2 | C,4 | B,,4 | G,,2 F,,2 | B,,2 F,,2 | %80
 C,4 | F,,4 |[M:4/4] (B,,2 C,2 D,2 E,2 | F,8) | F,8 |] %85

